docs/public/svg/favicon-dev.svg

<svg fill="none" height="200" viewBox="0 0 200 200" width="200" xmlns="http://www.w3.org/2000/svg" xmlns:xlink="http://www.w3.org/1999/xlink"><linearGradient id="a" gradientUnits="userSpaceOnUse" x1="100" x2="100" y1="25" y2="174.206"><stop offset="0" stop-color="#4dcfcf"/><stop offset=".703125" stop-color="#8597c9"/><stop offset="1" stop-color="#cf4dc2"/></linearGradient><path d="m0 0h200v200h-200z" fill="#fff"/><path clip-rule="evenodd" d="m43.5228 148.81h56.3334l14.4298 25.396h-.407-113.879l40.1284-69.536 16.8163-29.1187 14.4379 25.0177zm21.0096-86.4271 13.8624-24.0201 78.4532 135.8432h-27.783zm21.5781-37.3829h27.7465l86.143 149.206h-27.781z" fill="url(#a)" fill-rule="evenodd"/></svg>

<svg width="200" height="200" viewBox="0 0 200 200" fill="none" xmlns="http://www.w3.org/2000/svg">
<rect width="200" height="200" fill="white"/>
<path fill-rule="evenodd" clip-rule="evenodd" d="M43.5228 148.81H99.8562L114.286 174.206H113.879H0L40.1284 104.67L56.9447 75.5513L71.3826 100.569L43.5228 148.81ZM64.5324 62.3829L78.3948 38.3628L156.848 174.206H129.065L64.5324 62.3829ZM86.1105 25H113.857L200 174.206H172.219L86.1105 25Z" fill="url(#paint0_linear_67_696)"/>
<defs>
<linearGradient id="paint0_linear_67_696" x1="100" y1="25" x2="100" y2="174.206" gradientUnits="userSpaceOnUse">
<stop stop-color="#4DCFCF"/>
<stop offset="0.703125" stop-color="#8597C9"/>
<stop offset="1" stop-color="#CF4DC2"/>
</linearGradient>
</defs>
</svg>
